sources/images/icons/xbox.svg

<svg width="202" height="202" viewBox="0 0 202 202" fill="none" xmlns="http://www.w3.org/2000/svg">
<path d="M90.6627 201.108C75.1471 199.622 59.4396 194.05 45.9466 185.246C34.6401 177.872 32.0885 174.836 32.0885 168.785C32.0885 156.629 45.4551 135.333 68.3257 111.063C81.3108 97.2748 99.4013 81.1226 101.356 81.558C105.162 82.4077 135.571 112.069 146.957 126.035C164.958 148.11 173.231 166.191 169.027 174.251C165.832 180.377 145.999 192.353 131.432 196.953C119.423 200.745 103.652 202.351 90.6627 201.108ZM16.8164 156.146C7.41996 141.731 2.6726 127.54 0.383188 107.015C-0.375267 100.238 -0.108404 96.3642 2.09907 82.4499C4.84496 65.1271 14.7166 45.0655 26.585 32.729C31.6367 27.4853 32.0861 27.3449 38.2474 29.4283C45.7149 31.9565 53.6974 37.4716 66.0808 48.6706L73.3142 55.211L69.3581 60.0567C51.0334 82.5529 31.6928 114.459 24.4126 134.193C20.4565 144.915 18.8647 155.683 20.5735 160.166C21.7206 163.195 20.6672 162.067 16.8047 156.153L16.8164 156.146ZM181.74 158.597C182.67 154.065 181.495 145.746 178.744 137.351C172.786 119.174 152.868 85.3596 134.578 62.3672L128.82 55.1291L135.051 49.4103C143.183 41.9428 148.83 37.4716 154.925 33.6723C159.731 30.676 166.602 28.0237 169.556 28.0237C171.375 28.0237 177.787 34.6953 182.96 41.9521C190.975 53.1885 196.87 66.836 199.857 81.0219C201.788 90.1983 201.95 109.815 200.168 118.968C198.693 126.478 195.603 136.211 192.607 142.815C190.336 147.761 184.742 157.371 182.284 160.498C181.019 162.106 181.019 162.104 181.722 158.635L181.74 158.597ZM92.3247 24.592C83.8834 20.3081 70.8633 15.7082 63.672 14.4675C61.1532 14.0345 56.8529 13.7887 54.1211 13.9291C48.1846 14.2288 48.4491 13.9198 57.9672 9.42287C65.8795 5.68444 72.4809 3.48632 81.4465 1.60423C91.5241 -0.51429 110.474 -0.537699 120.392 1.55273C131.102 3.81171 143.717 8.50523 150.824 12.8827L152.94 14.1796L148.095 13.9361C138.459 13.4492 124.419 17.3422 109.343 24.6739C104.797 26.8884 100.846 28.6534 100.555 28.6066C100.267 28.5504 96.5618 26.7456 92.3154 24.592H92.3247Z" fill="black"/>
</svg>

<svg xmlns="http://www.w3.org/2000/svg" width="202" height="202" fill="none" viewBox="0 0 202 202"><path fill="#000" d="M90.7 201.1c-15.6-1.5-31.3-7-44.8-15.9-11.3-7.3-13.8-10.4-13.8-16.4 0-12.2 13.4-33.5 36.2-57.7 13-13.8 31.1-30 33-29.5 3.9.8 34.3 30.5 45.7 44.4 18 22.1 26.2 40.2 22 48.3-3.2 6-23 18-37.6 22.7-12 3.7-27.7 5.4-40.7 4.1m-73.9-45a104.5 104.5 0 0 1-16.4-49c-.8-6.9-.5-10.7 1.7-24.6a100.5 100.5 0 0 1 24.5-49.8c5-5.2 5.5-5.4 11.6-3.3 7.5 2.6 15.5 8 27.9 19.3l7.2 6.5-4 4.9a312.7 312.7 0 0 0-44.9 74c-4 10.8-5.5 21.6-3.8 26 1.1 3.1 0 2-3.8-4zm165 2.5c.9-4.5-.3-12.9-3-21.2-6-18.2-26-52-44.2-75l-5.8-7.3 6.2-5.7c8.2-7.5 13.8-12 20-15.7 4.7-3 11.6-5.7 14.6-5.7 1.8 0 8.2 6.7 13.4 14 8 11.2 13.9 24.8 16.9 39 1.9 9.2 2 28.8.3 38-1.5 7.5-4.6 17.2-7.6 23.8-2.3 5-7.9 14.6-10.3 17.7-1.3 1.6-1.3 1.6-.6-1.9zm-89.5-134C84 20.3 71 15.7 63.7 14.5c-2.5-.5-6.8-.7-9.6-.6-6 .3-5.7 0 3.9-4.5 7.9-3.7 14.5-6 23.4-7.8 10.1-2.1 29-2.1 39 0 10.7 2.2 23.3 7 30.4 11.3l2.1 1.3-4.8-.3a88.1 88.1 0 0 0-38.8 10.8c-4.5 2.2-8.5 4-8.7 4l-8.3-4.1z"/></svg>
